img/Icon.svg

<svg width="15" height="14" viewBox="0 0 15 14" fill="none" xmlns="http://www.w3.org/2000/svg">
<path d="M9.0625 12.9062C9.375 12.5938 9.34375 12.125 9.0625 11.8125L5.28125 8.25H14.25C14.6875 8.25 15 7.90625 15 7.5V6.5C15 6.0625 14.6875 5.75 14.25 5.75L5.28125 5.75L9.0625 2.15625C9.34375 1.84375 9.34375 1.375 9.0625 1.0625L8.375 0.375C8.0625 0.09375 7.59375 0.09375 7.3125 0.375L1.21875 6.46875C0.9375 6.75 0.9375 7.21875 1.21875 7.53125L7.3125 13.5938C7.59375 13.875 8.0625 13.875 8.375 13.5938L9.0625 12.9062Z" fill="#183B56"/>
</svg>

<svg width="15" height="14" fill="none" xmlns="http://www.w3.org/2000/svg"><path d="M9.063 12.906c.312-.312.28-.781 0-1.094L5.28 8.25h8.969A.74.74 0 0 0 15 7.5v-1a.722.722 0 0 0-.75-.75H5.281l3.782-3.594a.814.814 0 0 0 0-1.094L8.374.375c-.313-.281-.781-.281-1.063 0L1.22 6.469c-.282.281-.282.75 0 1.062l6.093 6.063c.282.281.75.281 1.063 0l.688-.688Z" fill="#183B56"/></svg>
